!!!SOCIAL_FUNCTION:	songs of the bear dance
!!!PDT:	1922
!!!OTL: No_14_Bear_Dance_Song_(j).krn
!!!REG: Southwest
!!!LANG: Non-Tone
!!!LING_GROUP: Uto-Aztecan
**kern
*staff1
=1-
=
*clefF4
*k[f#c#g#]
*M2/4
8.f#\L
16e\Jk
4f#\
=2
8.e\L
16c#\Jk
8.e;\L
16c#\Jk
=3
12c#\L
12A\
12A\J
12F#\L
12E\
12E\J
=4
4E\
4E;\
=5
8.e\L
16c#\Jk
8.e\L
16c#\Jk
=6
12c#\L
12A\
12A\J
12F#\L
12E\
12E\J
=7
4E\
4E;\
=8
16F#\LK
8.E\J
16F#\LK
8.E\J
=9||
*M5/8
16F#\LL
16F#\J
8E\
16F#\L
16F#\
16E\
16E\J
8E\J
=10||
*M2/4
8E\L
8E\J
8E\L
8E\J
=11
8E\L
8E\J
8E\L
8E\J
==:|!
*-
